dist/assets/images/producersColor/hdr-inc-vector-logo-xs 1 (Traced).svg

<svg width="72" height="39" viewBox="0 0 72 39" fill="none" xmlns="http://www.w3.org/2000/svg">
<path fill-rule="evenodd" clip-rule="evenodd" d="M0 19.159V38.2398H3.9109H7.8218V30.5806V22.9214H15.9133H24.0048V19.159V15.3966H15.9133H7.8218V7.7374V0.0782044H3.9109H0V19.159ZM24.0048 3.5329V7.06554L26.3649 7.07091C31.6578 7.08274 34.7849 8.09536 37.3105 10.6154C39.8073 13.1061 40.9177 16.3047 40.6502 20.234C40.3198 25.0845 37.1662 29.0936 32.5921 30.4779C31.1701 30.9082 29.9249 31.0517 27.3655 31.0805L24.0056 31.1181L24.0051 34.7187L24.0048 38.3196L27.7135 38.1686C32.2523 37.984 34.7682 37.4481 37.7604 36.0288C39.6417 35.1366 40.4668 34.5263 42.3588 32.6268C46.2379 28.7327 47.7872 24.8961 47.7974 19.159C47.8139 10.0486 42.5741 3.08249 34.0232 0.846274C32.6347 0.483201 30.6623 0.256919 27.9832 0.153453L24.0048 0V3.5329ZM48.0097 3.37488V6.74332L53.7412 6.84974C59.9242 6.96449 60.5178 7.0822 62.2491 8.53664C64.7837 10.6662 64.9493 14.589 62.6111 17.101C61.355 18.4498 59.9787 18.9746 57.3476 19.1074L54.9527 19.2281L53.6686 21.9381L52.3848 24.6481L59.3945 31.78C63.2498 35.7023 66.509 38.9506 66.6374 38.9979C66.9282 39.1057 71.9722 34.9802 72 34.6118C72.011 34.464 69.7443 32.153 66.9627 29.4763L61.9052 24.6097L63.3933 24.1786C65.2837 23.6309 67.4843 22.1015 68.9357 20.3264C72.7282 15.6882 72.1728 8.169 67.7187 3.84518C64.6771 0.892498 62.7376 0.360116 54.2806 0.157215L48.0097 0.00644976V3.37488Z" fill="#4E504F"/>
</svg>

<svg width="72" height="39" fill="none" xmlns="http://www.w3.org/2000/svg"><path fill-rule="evenodd" clip-rule="evenodd" d="M0 19.159v19.08h7.822V22.922h16.183v-7.524H7.822V.078H0V19.16zM24.005 3.533v3.533l2.36.005c5.293.012 8.42 1.024 10.945 3.544 2.497 2.491 3.608 5.69 3.34 9.619-.33 4.85-3.484 8.86-8.058 10.244-1.422.43-2.667.574-5.226.602l-3.36.038v3.6l-.001 3.602 3.709-.151c4.538-.185 7.054-.72 10.046-2.14 1.882-.892 2.707-1.503 4.599-3.402 3.879-3.894 5.428-7.73 5.438-13.468.017-9.11-5.223-16.077-13.774-18.313-1.388-.363-3.36-.59-6.04-.693L24.005 0v3.533zm24.005-.158v3.368l5.731.107c6.183.114 6.777.232 8.508 1.687 2.535 2.13 2.7 6.052.362 8.564-1.256 1.349-2.632 1.874-5.263 2.006l-2.395.121-1.284 2.71-1.284 2.71 7.01 7.132c3.855 3.922 7.114 7.17 7.242 7.218.291.108 5.335-4.018 5.363-4.386.011-.148-2.256-2.459-5.037-5.136l-5.058-4.866 1.488-.431c1.89-.548 4.091-2.077 5.543-3.853 3.792-4.638 3.237-12.157-1.217-16.48C64.677.891 62.738.36 54.28.156L48.01.007v3.368z" fill="#4E504F"/></svg>
